app/img/icon-twitter.svg

<svg width="42" height="42" viewBox="0 0 42 42" fill="none" xmlns="http://www.w3.org/2000/svg">
<path d="M37.6845 10.6854C36.4597 11.2137 35.1269 11.5939 33.754 11.742C35.1793 10.8952 36.2467 9.55742 36.7559 7.9796C35.4184 8.77527 33.9531 9.33321 32.4251 9.62867C31.7865 8.94593 31.0141 8.40203 30.156 8.03086C29.298 7.65969 28.3727 7.4692 27.4379 7.47127C23.6554 7.47127 20.6134 10.5373 20.6134 14.2997C20.6134 14.828 20.6775 15.3564 20.7815 15.8647C15.1179 15.5685 10.0666 12.8628 6.70842 8.72008C6.09652 9.76522 5.77587 10.9552 5.77981 12.1663C5.77981 14.5359 6.9846 16.6252 8.82179 17.854C7.7391 17.8114 6.68177 17.5138 5.73579 16.9854V17.0695C5.73579 20.3876 8.08131 23.1374 11.2073 23.7698C10.6204 23.9223 10.0166 24.0003 9.41017 24.002C8.96588 24.002 8.54561 23.958 8.12133 23.8979C8.98589 26.6037 11.5035 28.569 14.5015 28.633C12.156 30.4702 9.21805 31.5509 6.02798 31.5509C5.4556 31.5509 4.92726 31.5309 4.37891 31.4668C7.40487 33.4081 10.9952 34.5288 14.8617 34.5288C27.4139 34.5288 34.2823 24.1301 34.2823 15.1042C34.2823 14.808 34.2823 14.5118 34.2623 14.2156C35.5912 13.243 36.7559 12.0382 37.6845 10.6854Z" fill="white"/>
</svg>

<svg width="42" height="42" fill="none" xmlns="http://www.w3.org/2000/svg"><path d="M37.684 10.685a13.689 13.689 0 01-3.93 1.057 6.809 6.809 0 003.002-3.762 13.474 13.474 0 01-4.33 1.649 6.807 6.807 0 00-4.988-2.158 6.824 6.824 0 00-6.825 6.829c0 .528.064 1.056.169 1.565A19.396 19.396 0 016.708 8.72a6.777 6.777 0 00-.928 3.446 6.83 6.83 0 003.042 5.688 6.883 6.883 0 01-3.086-.869v.085a6.826 6.826 0 005.471 6.7 7.26 7.26 0 01-1.797.232 9.07 9.07 0 01-1.289-.104 6.837 6.837 0 006.38 4.735 13.68 13.68 0 01-8.473 2.918c-.572 0-1.1-.02-1.65-.084a19.327 19.327 0 0010.484 3.062c12.552 0 19.42-10.399 19.42-19.425 0-.296 0-.592-.02-.888a14.7 14.7 0 003.422-3.53z" fill="#fff"/></svg>
